X:288
T:Sur les bords de la rivire
R:Valse
A:Massif Central
O:France
M:3/4
L:1/4
Q:1/4=200
K:F
CFG|A2B|A2G|F3|AGA|c2F|A3|G3:|
GGG|G3|GAB|c3|cBc|d2d|c2B|AFG|
A3|GcA|G3|FFG|A3|GcA|G3|F3:||
W:
W:J'ai fait l'amour cinq  six mois dans la ville de Rennes (bis)
W:Je l'ai fait en suivant la loi
W:Tenant ma mie entre mes bras
W:Sur les bords de la rivire (bis)
W:
W:Elle ne fut pas au bord de l'eau
W:qu'elle vit venir sa mre (bis)
W:Oh! ma mre j'ai un amant
W:Sur les bords de la rivire
W:Et je l'aime bien tendrement
W:Comme vous aimez mon pre (bis)
W:
W:Oh ! ma fille que penses-tu de ce mineur volage (bis)
W:Nous n'avions plus que toi d'enfant
W:Nous te marierons richement
W:Nous te ferons millionnaire (bis)
W:
W:De vos millions je n'en veux s,
W: fait marcher trop fire(bis)
W:J'aime mieux mon petit mineur
W:C'est lui qui a charm mon coeur
W:Plus que toutes vos richesse (bis)
